X: 71
T: The General Toast
O: "In the School for Scandal"
%R: jig
B: "The Hibernian Muse" p.45 #1
F: http://imslp.org/wiki/The_Hibernian_Muse_%28Various%29
Z: 2015 John Chambers <jc:trillian.mit.edu>
P: No. LXXI.
M: 6/8
L: 1/8
K: G
% - - - - - - - - - - - - - - - - - - - - - - - - - - - - -
V: 1
[|\
G>AG gfg | ede d3 | GAG gfg | Te3 d3 |\
G>AG gfg | ede Hd2d | cdc BcB | TA3 G3 |
Bcd d3 | dcB A2A | Bcd ded | cBA G3 |\
[BG][cA][dB] [d3B3] | [dB][cA][BG] [A2F2][AF] |\
[BG][cA][dB] [dB][ge][dB] | [cA][BG][AF] G3 |]
% - - - - - - - - - - - - - - - - - - - - - - - - - - - - -
V: 2 clef=bass middle=d
[|\
g3 b3 | c'3 bd'b | g3 b3 | c'3 bd'b |\
g3 b3 | c'3 Hb3 | a3 g3 | ded BAG |
g3 gab | g3 fed | g3 b2g | d'2d g3 |\
g3 g3 | d3 d3 | g3 g3 | d'2d g3 |]

%%sep 2 1 500
%%sep 1 1 500

